assets/img/jack-harlow.svg

<svg fill="none" height="24" viewBox="0 0 142 24" width="142" xmlns="http://www.w3.org/2000/svg" xmlns:xlink="http://www.w3.org/1999/xlink"><clipPath id="a"><path d="m0 0h141.236v24h-141.236z"/></clipPath><g clip-path="url(#a)" fill="#96ff94"><path d="m131.91 23.6854c-.494 0-.966.0225-1.461 0-.696-.0225-.809-.1348-.741-.7865.157-1.4832.337-2.9663.517-4.4495.202-1.7078.382-3.4157.584-5.1236.067-.6292.157-1.2584.202-1.8876 0-.1124-.112-.2247-.157-.3371-.045.0899-.112.1798-.157.2922-.517 1.6404-1.057 3.2809-1.573 4.9213-.697 2.1798-1.371 4.3596-2.045 6.5169-.27.8764-.292.8764-1.169.8764-.944.0224-1.865.0224-2.809 0-.786-.0225-.899-.1349-.809-.8315.247-2.1573.517-4.2921.787-6.4494.179-1.5506.359-3.1236.539-4.6742.27-2.33706.539-4.67414.809-7.01122.112-.96629.202-1.93259.315-2.89888.022-.29213.089-.58427.112-.876403.045-.494382.315-.719102.809-.69663.562.022472 1.124 0 1.685 0 .472 0 .697.202248.652.674158-.112 1.011235-.202 1.999995-.315 3.011235-.202 1.70787-.404 3.41573-.606 5.1236-.27 2.26964-.54 4.51684-.809 6.78654-.09.6966-.158 1.4157-.248 2.1123 0 .0899.045.2023.09.2922.068-.0899.158-.1573.203-.2472.247-.7416.472-1.4832.719-2.2472 1.483-4.809 2.944-9.64046 4.427-14.47192.314-1.033713.314-1.033713 1.37-1.056185h1.236c.877.022472.922.067416.877.898875-.045.74157-.135 1.48315-.225 2.22472-.27 2.1573-.562 4.29214-.809 6.44944-.27 2.15727-.494 4.29217-.764 6.44947-.067.5168-.112 1.0337-.18 1.5505 0 .0674.068.1349.09.2023.045-.045.113-.0899.135-.1349.112-.2696.202-.5618.292-.8539 1.618-5.2135 3.259-10.40448 4.832-15.61797.404-1.3258379.516-1.146063 1.528-1.168535 1.528-.022472 1.528 0 1.078 1.460675-2.157 6.92135-4.292 13.84273-6.449 20.76403-.045.1798-.135.3596-.18.5393-.09.5618-.472.7191-.966.6967-.427-.0225-.921-.0225-1.416-.0225z"/><path d="m62.6292 13.5281c-.3371 0-.6742 0-1.0113 0-.9438.0225-.9887.0449-1.2134.9663-.5394 2.2921-1.0787 4.5843-1.618 6.8539-.1348.5393-.2922 1.0787-.382 1.6405-.0899.4944-.3146.7191-.809.7191-.6742-.0225-1.3483 0-2.0225-.0225-.382 0-.5393-.2247-.4944-.5843.0225-.1797.0674-.3595.1124-.5393 1.6854-7.1236 3.3708-14.22471 5.0562-21.34831.2247-.921345.2471-.943817 1.191-.966289.4943 0 .9663-.022472 1.4606 0 .809.022472.854.067415.6742.853929-.5843 2.47191-1.1685 4.94382-1.7528 7.41573-.0899.4045-.2023.78652-.2921 1.19101-.0899.51683 0 .67413.5617.69663.8315.0225 1.6405.0225 2.472.0225.8988-.0225.9213-.0225 1.1236-.87643.5842-2.38202 1.1235-4.78652 1.7078-7.19101.6068-2.494382.1124-2.044944 2.6517-2.089887 1.3483-.022472 1.4157 0 1.0786 1.370787-1.6629 7.03371-3.3033 14.08984-4.9662 21.14604-.2023.8989-.2472.9438-1.2135.9438-.6292 0-1.2809.0225-1.9101-.0224-.5618-.0225-.6517-.1798-.5394-.7191.3821-1.6629.7866-3.3483 1.1911-5.0113.2921-1.2359.5842-2.4719.8539-3.7078.1348-.5843.0449-.6742-.5169-.6967-.4045-.0674-.8988-.0449-1.3932-.0449z"/><path d="m91.3258.292123c.9663 0 1.9551-.067416 2.9214.022472 1.0786.089887 2.0899.47191 2.5168 1.573035.2247.58427.427 1.23595.3596 1.84269-.1798 1.93259-.5394 3.8427-1.3259 5.64045-.4719 1.05623-1.1685 1.91013-2.1573 2.51683-.2696.1573-.5168.3596-.1348.6742 1.1685 1.0112 1.191 2.3595.9438 3.7303-.3146 1.7528-.7416 3.5056-1.0786 5.2584-.0899.472-.1573.9663-.1573 1.4383-.0225.4494-.1573.7191-.6517.6966-.6742 0-1.3483 0-2.0225 0-.4719 0-.6966-.2472-.6292-.6966.1124-.854.2022-1.7079.382-2.5394.2472-1.3483.6068-2.6966.8315-4.0449.2696-1.7528-.9663-2.7865-2.6742-2.2922-.4719.1349-.4944.5169-.5842.8765-.3146 1.3707-.6293 2.764-.9439 4.1573-.2921 1.2809-.6067 2.5393-.8764 3.8202-.1123.5393-.3595.764-.8988.764-.6742-.0224-1.3484 0-2.0225 0-.3596 0-.5393-.1123-.4494-.5393.2921-1.236.5393-2.4719.8314-3.7079 1.3933-6.0449 2.7865-12.06738 4.1798-18.11233.2472-1.078647.2472-1.078647 1.3034-1.078647h2.3595c-.0225-.044944-.0225-.022472-.0225 0zm-1.3932 10.584277c1.5955 0 2.4269-.5843 2.8988-2.11237.2922-.92135.4944-1.88764.6742-2.83146.382-1.97753-.2022-2.62921-2.2247-2.51685-.7641.04494-.8315.08989-1.0112.89887-.2248 1.01124-.4495 2.04495-.6967 3.05618-.2247.94382-.4494 1.88765-.6517 2.83143-.1123.5618-.0224.6517.5618.6742.1573.0225.2922 0 .4495 0z"/><path d="m112.539 24c-.696-.1348-1.415-.1798-2.067-.427-1.124-.4269-1.865-1.3033-1.91-2.5393-.045-1.1011 0-2.2472.225-3.3258.853-4.045 1.775-8.08992 2.674-12.13487.314-1.39325.899-2.67415 1.91-3.7528 1.798-1.955061 4.607-2.134836 6.517-1.483151 1.236.426967 1.91 1.370791 2.045 2.696631.157 1.50562-.203 2.96629-.517 4.42697-.742 3.43822-1.483 6.85392-2.247 10.26962-.18.7866-.45 1.5955-.764 2.3371-1.057 2.6068-3.034 3.8652-5.866 3.9326zm-.696-5.0337c0 1.4382.786 2.0225 2 1.6854.786-.2023 1.303-.7191 1.618-1.4382.135-.3146.224-.6292.314-.9663.967-4.2921 1.91-8.60675 2.854-12.92136.045-.24719.068-.51685.045-.78651-.067-.87641-.607-1.41573-1.46-1.37079-.72.04494-1.439.24719-1.798.96629-.27.51686-.517 1.07865-.652 1.64045-.921 4.04495-1.82 8.08992-2.697 12.13482-.112.427-.179.8315-.224 1.0562z"/><path d="m42.4494.292136c1.5505 0 1.5505 0 1.1685 1.528094-.6067 2.49438-1.2359 5.01123-1.8427 7.50561-.0449.13484-.0674.29214-.0674.44944 0 .13483 0 .26962.0225.42692.1123-.0898.2472-.1573.337-.26962 1.8203-2.60674 3.6405-5.21348 5.4382-7.84269 1.3034-1.887641 1.3034-1.887642 3.618-1.797754.1124 0 .2247 0 .3371.022472.3371.044944.3371.224719.1798.449438-.1798.269664-.382.561794-.5843.831464-1.955 2.78651-3.9101 5.57303-5.8876 8.33707-.4495.62922-.5618 1.25842-.4495 2.00002.3146 2.1798.5618 4.3595.854 6.5393.1797 1.4382.382 2.8764.5842 4.3371.1124.764.045.8539-.7191.8989-.5618.0224-1.1236.0224-1.6854 0-.7415-.0225-.7865-.045-.9213-.8315-.1348-.764-.2247-1.5506-.3146-2.3371-.1798-1.5505-.3146-3.1236-.5169-4.6741-.0449-.427-.2022-.854-.3146-1.2809-.2921.3146-.6067.6067-.8989.9213-.6067.6517-.8988 1.4382-1.0786 2.2922-.3596 1.6404-.7641 3.2809-1.1685 4.8988-.2472 1.0113-.2472 1.0113-1.2585 1.0113-.4494 0-.8989.0224-1.3483 0-.8989-.0225-.9213-.0675-.6966-1.0113.5618-2.3146 1.1011-4.6517 1.6629-6.9663 1.1685-4.7865 2.3596-9.573 3.5506-14.33704.0449-.17978.0899-.35955.1348-.539326.0899-.382023.3371-.561798.7416-.539326.3595 0 .7415-.022472 1.1236-.022472z"/><path d="m15.2359 19.3708c-.4944 0-.9663.0225-1.4606 0-.5394-.0225-.8315.2247-1.0113.6966-.3595.9888-.7865 1.9326-1.1236 2.9214-.1798.4944-.4719.7191-.9887.6966-.5169-.0225-1.05622 0-1.57308 0-.67416-.0225-.69663-.0674-.44944-.7416.74158-1.9101 1.50562-3.8202 2.24722-5.7303 2.0899-5.2809 4.1573-10.5618 6.2472-15.8427.0899-.20225.1797-.404496.2472-.629215.1797-.337078.4269-.516854.8089-.516854h3.8203c.4719 0 .6741.22472.6292.69663-.0899.898879-.1573 1.775279-.2472 2.674159-.1798 1.70786-.4045 3.41573-.5843 5.12359-.1798 1.70789-.3595 3.41569-.5393 5.12359-.1798 1.7753-.4045 3.5506-.5843 5.3483-.1123 1.1236-.2247 2.2247-.3146 3.3483-.0899 1.0562-.1798 1.1236-1.2135 1.1461-.2921 0-.6067 0-.8988 0-1.1911-.0225-1.2585-.1124-1.1012-1.3258.1124-.7866.1798-1.5506.2922-2.3371.0674-.427-.1124-.6517-.5169-.6742-.5618.0225-1.1236.0225-1.6854.0225zm.8764-2.9663h.6742c1.0112-.0449 1.1011-.1348 1.2135-1.191.3595-3.2584.7191-6.51686 1.0786-9.77529 0-.06741.045-.1573.0225-.22471-.0225-.15731-.0899-.33708-.1348-.49439-.0899.11236-.2023.20225-.2697.33708-.1348.26966-.2247.5618-.3371.83146-1.146 2.92135-2.2921 5.84265-3.4382 8.74155-.6966 1.7753-.6966 1.7753 1.191 1.7753z"/><path d="m80.1574.224709c.6067 0 1.191-.022472 1.7977 0 .6068.022472.6517.11236.6067.674157-.2921 3.303374-.5842 6.629214-.8764 9.932534-.2921 3.3933-.6067 6.7641-.8988 10.1574-.0674.6966-.1573 1.4157-.2023 2.1123-.0224.382-.2022.5618-.5618.5618-.7415 0-1.5056 0-2.2472 0-.337 0-.4494-.2022-.4269-.5168.1123-.9663.2022-1.9326.2921-2.8989.0674-.7416 0-.854-.764-.8764-.9439-.0225-1.8652.0224-2.809-.0225-.6517-.0225-.9438.2697-1.1236.8315-.3146.9663-.6967 1.8876-1.0337 2.8539-.1573.4494-.4045.6517-.8989.6517-2.9214-.0225-2.427.2247-1.5506-2.1124 2.4719-6.6517 4.9888-13.30335 7.4832-19.93256.0449-.11236.0899-.20225.1348-.31461.4045-1.078649.4045-1.078649 1.618-1.101121zm-3.9551 16.179791c2-.045 1.7753.1348 2-1.7978.3371-3.1236.5843-6.24716.8539-9.37076.0225-.17977-.0449-.33707-.0674-.51685-.1123.13483-.2696.24719-.3371.4045-.1123.20224-.1797.40449-.2472.62921-1.1235 3.01123-2.2471 6-3.3707 9.0112-.6517 1.6405-.6292 1.6405 1.1685 1.6405z"/><path d="m34.6966 8.11236c-.4719-.04495-.9662-.08989-1.4382-.11236.0675-.47191.1573-.94382.2248-1.41573.1123-.53933.2472-1.10113.3146-1.64045.1573-1.30337-.6517-1.97753-1.9101-1.6854-.8989.22472-1.4382.78652-1.7079 1.61798-.3596 1.14607-.6517 2.29214-.9438 3.46068-.8315 3.30332-1.6405 6.58422-2.4495 9.88762-.0899.3146-.1573.6517-.1573.9888.0225 1.0112.6742 1.573 1.7079 1.4157.9888-.1348 1.6404-.7191 1.9551-1.6404.2696-.7641.4719-1.5731.6741-2.3596.4045-1.573.382-1.5955 2.045-1.573h.8988c.4045 0 .5169.1798.4045.5618-.3595 1.3033-.6292 2.6067-1.0337 3.8876-.3371 1.0787-.9887 2-1.8202 2.7865-1.7978 1.6854-3.9101 1.9101-6.1798 1.3259-1.1011-.2697-1.6854-1.1236-1.9775-2.2247-.2697-1.1012-.1124-2.1573.1573-3.2135 1.0112-4.1349 2.0225-8.26969 3.0786-12.38205.2248-.89888.5843-1.77528 1.0337-2.58427 1.5506-2.808989 4.1574-3.617978 7.0562-3.033708 1.4158.292134 2.1798 1.325838 2.3371 2.786518.1573 1.5955-.3146 3.10112-.6517 4.62921-.0899.38202-.3146.47191-.6292.44944-.3371 0-.6741 0-1.0112 0 .0224.04494.0224.06742.0224.06742z"/><path d="m100.607 23.6854c-1.1688 0-2.3149.0225-3.4834 0-.9438-.0225-1.0112-.1124-.809-.9663 1.4157-6.2921 2.8315-12.6067 4.2474-18.89886.202-.92135.404-1.82023.607-2.74158.179-.786513.269-.853929 1.056-.853929.741 0 1.483.067416 2.224.089888.225.764041-.134 1.438201-.292 2.134831-1.236 5.55056-2.472 11.07865-3.73 16.60675-.315 1.4157-.337 1.4157 1.124 1.4157 1.191 0 2.404 0 3.595.0225.562 0 .674.1573.584.6741-.112.5843-.314 1.1686-.382 1.7529-.09.5842-.404.7415-.921.7415-1.281.0225-2.539.0225-3.82.0225z"/><path d="m10.6967.224731c1.6854 0 1.6629 0 1.2584 1.617979-1.3258 5.16854-2.62919 10.33709-3.93256 15.50559-.31461 1.191-.67416 2.3596-1.30337 3.4382-1.41573 2.382-3.61798 3.0562-6.202249 3.0113-.382022 0-.5617976-.2023-.47191-.5618.157303-.7641.337079-1.5281.539326-2.2922.089887-.337.35955-.4045.696633-.4269.51685-.0225 1.05618-.0225 1.52809-.2023.85393-.3146 1.37078-1.0337 1.5955-1.8876.4045-1.5056.80899-3.0337 1.19101-4.5393 1.05618-4.11241 2.11236-8.24724 3.14607-12.3596.35955-1.415728.29214-1.280897 1.61796-1.280897.1124-.022472.2247-.022472.3371-.022472z"/></g></svg>

<svg width="142" height="24" viewBox="0 0 142 24" fill="none" xmlns="http://www.w3.org/2000/svg">
<g clip-path="url(#clip0)">
<path d="M131.91 23.6854C131.416 23.6854 130.944 23.7079 130.449 23.6854C129.753 23.6629 129.64 23.5506 129.708 22.8989C129.865 21.4157 130.045 19.9326 130.225 18.4494C130.427 16.7416 130.607 15.0337 130.809 13.3258C130.876 12.6966 130.966 12.0674 131.011 11.4382C131.011 11.3258 130.899 11.2135 130.854 11.1011C130.809 11.191 130.742 11.2809 130.697 11.3933C130.18 13.0337 129.64 14.6742 129.124 16.3146C128.427 18.4944 127.753 20.6742 127.079 22.8315C126.809 23.7079 126.787 23.7079 125.91 23.7079C124.966 23.7303 124.045 23.7303 123.101 23.7079C122.315 23.6854 122.202 23.573 122.292 22.8764C122.539 20.7191 122.809 18.5843 123.079 16.427C123.258 14.8764 123.438 13.3034 123.618 11.7528C123.888 9.41574 124.157 7.07866 124.427 4.74158C124.539 3.77529 124.629 2.80899 124.742 1.8427C124.764 1.55057 124.831 1.25843 124.854 0.966297C124.899 0.471915 125.169 0.247195 125.663 0.269667C126.225 0.292139 126.787 0.269667 127.348 0.269667C127.82 0.269667 128.045 0.471915 128 0.943825C127.888 1.95506 127.798 2.94382 127.685 3.95506C127.483 5.66293 127.281 7.37079 127.079 9.07866C126.809 11.3483 126.539 13.5955 126.27 15.8652C126.18 16.5618 126.112 17.2809 126.022 17.9775C126.022 18.0674 126.067 18.1798 126.112 18.2697C126.18 18.1798 126.27 18.1124 126.315 18.0225C126.562 17.2809 126.787 16.5393 127.034 15.7753C128.517 10.9663 129.978 6.13484 131.461 1.30338C131.775 0.269667 131.775 0.269667 132.831 0.247195C133.236 0.247195 133.663 0.247195 134.067 0.247195C134.944 0.269667 134.989 0.314611 134.944 1.14607C134.899 1.88764 134.809 2.62922 134.719 3.37079C134.449 5.52809 134.157 7.66293 133.91 9.82023C133.64 11.9775 133.416 14.1124 133.146 16.2697C133.079 16.7865 133.034 17.3034 132.966 17.8202C132.966 17.8876 133.034 17.9551 133.056 18.0225C133.101 17.9775 133.169 17.9326 133.191 17.8876C133.303 17.618 133.393 17.3258 133.483 17.0337C135.101 11.8202 136.742 6.62922 138.315 1.41573C138.719 0.0898921 138.831 0.269667 139.843 0.247195C141.371 0.224723 141.371 0.247195 140.921 1.70787C138.764 8.62922 136.629 15.5506 134.472 22.4719C134.427 22.6517 134.337 22.8315 134.292 23.0112C134.202 23.573 133.82 23.7303 133.326 23.7079C132.899 23.6854 132.405 23.6854 131.91 23.6854Z" fill="#96FF94"/>
<path d="M62.6292 13.5281C62.2921 13.5281 61.955 13.5281 61.6179 13.5281C60.6741 13.5506 60.6292 13.573 60.4045 14.4944C59.8651 16.7865 59.3258 19.0787 58.7865 21.3483C58.6517 21.8876 58.4943 22.427 58.4045 22.9888C58.3146 23.4832 58.0899 23.7079 57.5955 23.7079C56.9213 23.6854 56.2472 23.7079 55.573 23.6854C55.191 23.6854 55.0337 23.4607 55.0786 23.1011C55.1011 22.9214 55.146 22.7416 55.191 22.5618C56.8764 15.4382 58.5618 8.33709 60.2472 1.21349C60.4719 0.292145 60.4943 0.269673 61.4382 0.247201C61.9325 0.247201 62.4045 0.224729 62.8988 0.247201C63.7078 0.269673 63.7528 0.314616 63.573 1.10113C62.9887 3.57304 62.4045 6.04495 61.8202 8.51686C61.7303 8.92136 61.6179 9.30338 61.5281 9.70787C61.4382 10.2247 61.5281 10.382 62.0898 10.4045C62.9213 10.427 63.7303 10.427 64.5618 10.427C65.4606 10.4045 65.4831 10.4045 65.6854 9.55057C66.2696 7.16855 66.8089 4.76405 67.3932 2.35956C68 -0.134822 67.5056 0.314616 70.0449 0.269673C71.3932 0.247201 71.4606 0.269673 71.1235 1.64046C69.4606 8.67417 67.8202 15.7303 66.1573 22.7865C65.955 23.6854 65.9101 23.7303 64.9438 23.7303C64.3146 23.7303 63.6629 23.7528 63.0337 23.7079C62.4719 23.6854 62.382 23.5281 62.4943 22.9888C62.8764 21.3259 63.2809 19.6405 63.6854 17.9775C63.9775 16.7416 64.2696 15.5056 64.5393 14.2697C64.6741 13.6854 64.5842 13.5955 64.0224 13.573C63.6179 13.5056 63.1236 13.5281 62.6292 13.5281Z" fill="#96FF94"/>
<path d="M91.3258 0.292123C92.2921 0.292123 93.2809 0.224707 94.2472 0.314595C95.3258 0.404482 96.3371 0.786505 96.764 1.88763C96.9887 2.4719 97.191 3.12358 97.1236 3.73032C96.9438 5.66291 96.5842 7.57302 95.7977 9.37077C95.3258 10.427 94.6292 11.2809 93.6404 11.8876C93.3708 12.0449 93.1236 12.2472 93.5056 12.5618C94.6741 13.573 94.6966 14.9213 94.4494 16.2921C94.1348 18.0449 93.7078 19.7977 93.3708 21.5505C93.2809 22.0225 93.2135 22.5168 93.2135 22.9888C93.191 23.4382 93.0562 23.7079 92.5618 23.6854C91.8876 23.6854 91.2135 23.6854 90.5393 23.6854C90.0674 23.6854 89.8427 23.4382 89.9101 22.9888C90.0225 22.1348 90.1123 21.2809 90.2921 20.4494C90.5393 19.1011 90.8989 17.7528 91.1236 16.4045C91.3932 14.6517 90.1573 13.618 88.4494 14.1123C87.9775 14.2472 87.955 14.6292 87.8652 14.9888C87.5506 16.3595 87.2359 17.7528 86.9213 19.1461C86.6292 20.427 86.3146 21.6854 86.0449 22.9663C85.9326 23.5056 85.6854 23.7303 85.1461 23.7303C84.4719 23.7079 83.7977 23.7303 83.1236 23.7303C82.764 23.7303 82.5843 23.618 82.6742 23.191C82.9663 21.955 83.2135 20.7191 83.5056 19.4831C84.8989 13.4382 86.2921 7.41572 87.6854 1.37077C87.9326 0.292123 87.9326 0.292123 88.9888 0.292123C89.7753 0.292123 90.5618 0.292123 91.3483 0.292123C91.3258 0.247179 91.3258 0.269651 91.3258 0.292123ZM89.9326 10.8764C91.5281 10.8764 92.3595 10.2921 92.8314 8.76403C93.1236 7.84268 93.3258 6.87639 93.5056 5.93257C93.8876 3.95504 93.3034 3.30336 91.2809 3.41572C90.5168 3.46066 90.4494 3.50561 90.2697 4.31459C90.0449 5.32583 89.8202 6.35954 89.573 7.37077C89.3483 8.31459 89.1236 9.25842 88.9213 10.2022C88.809 10.764 88.8989 10.8539 89.4831 10.8764C89.6404 10.8989 89.7753 10.8764 89.9326 10.8764Z" fill="#96FF94"/>
<path d="M112.539 24C111.843 23.8652 111.124 23.8202 110.472 23.573C109.348 23.1461 108.607 22.2697 108.562 21.0337C108.517 19.9326 108.562 18.7865 108.787 17.7079C109.64 13.6629 110.562 9.61798 111.461 5.57303C111.775 4.17978 112.36 2.89888 113.371 1.82023C115.169 -0.134831 117.978 -0.314606 119.888 0.337079C121.124 0.764046 121.798 1.70787 121.933 3.03371C122.09 4.53933 121.73 6 121.416 7.46068C120.674 10.8989 119.933 14.3146 119.169 17.7303C118.989 18.5169 118.719 19.3258 118.405 20.0674C117.348 22.6742 115.371 23.9326 112.539 24ZM111.843 18.9663C111.843 20.4045 112.629 20.9888 113.843 20.6517C114.629 20.4494 115.146 19.9326 115.461 19.2135C115.596 18.8989 115.685 18.5843 115.775 18.2472C116.742 13.9551 117.685 9.64045 118.629 5.32584C118.674 5.07865 118.697 4.80899 118.674 4.53933C118.607 3.66292 118.067 3.1236 117.214 3.16854C116.494 3.21348 115.775 3.41573 115.416 4.13483C115.146 4.65169 114.899 5.21348 114.764 5.77528C113.843 9.82023 112.944 13.8652 112.067 17.9101C111.955 18.3371 111.888 18.7416 111.843 18.9663Z" fill="#96FF94"/>
<path d="M42.4494 0.292136C43.9999 0.292136 43.9999 0.292136 43.6179 1.82023C43.0112 4.31461 42.382 6.83146 41.7752 9.32584C41.7303 9.46068 41.7078 9.61798 41.7078 9.77528C41.7078 9.91011 41.7078 10.0449 41.7303 10.2022C41.8426 10.1124 41.9775 10.0449 42.0673 9.93258C43.8876 7.32584 45.7078 4.7191 47.5055 2.08989C48.8089 0.202249 48.8089 0.202248 51.1235 0.292136C51.2359 0.292136 51.3482 0.292136 51.4606 0.314608C51.7977 0.359552 51.7977 0.539327 51.6404 0.764046C51.4606 1.03371 51.2584 1.32584 51.0561 1.59551C49.1011 4.38202 47.146 7.16854 45.1685 9.93258C44.719 10.5618 44.6067 11.191 44.719 11.9326C45.0336 14.1124 45.2808 16.2921 45.573 18.4719C45.7527 19.9101 45.955 21.3483 46.1572 22.809C46.2696 23.573 46.2022 23.6629 45.4381 23.7079C44.8763 23.7303 44.3145 23.7303 43.7527 23.7079C43.0112 23.6854 42.9662 23.6629 42.8314 22.8764C42.6966 22.1124 42.6067 21.3258 42.5168 20.5393C42.337 18.9888 42.2022 17.4157 41.9999 15.8652C41.955 15.4382 41.7977 15.0112 41.6853 14.5843C41.3932 14.8989 41.0786 15.191 40.7864 15.5056C40.1797 16.1573 39.8876 16.9438 39.7078 17.7978C39.3482 19.4382 38.9437 21.0787 38.5393 22.6966C38.2921 23.7079 38.2921 23.7079 37.2808 23.7079C36.8314 23.7079 36.3819 23.7303 35.9325 23.7079C35.0336 23.6854 35.0112 23.6404 35.2359 22.6966C35.7977 20.382 36.337 18.0449 36.8988 15.7303C38.0673 10.9438 39.2584 6.1573 40.4494 1.39326C40.4943 1.21348 40.5393 1.03371 40.5842 0.853934C40.6741 0.471911 40.9213 0.292136 41.3258 0.314608C41.6853 0.314608 42.0673 0.292136 42.4494 0.292136Z" fill="#96FF94"/>
<path d="M15.2359 19.3708C14.7415 19.3708 14.2696 19.3933 13.7753 19.3708C13.2359 19.3483 12.9438 19.5955 12.764 20.0674C12.4045 21.0562 11.9775 22 11.6404 22.9888C11.4606 23.4832 11.1685 23.7079 10.6517 23.6854C10.1348 23.6629 9.59548 23.6854 9.07862 23.6854C8.40446 23.6629 8.38199 23.618 8.62918 22.9438C9.37076 21.0337 10.1348 19.1236 10.8764 17.2135C12.9663 11.9326 15.0337 6.6517 17.1236 1.3708C17.2135 1.16855 17.3033 0.966304 17.3708 0.741585C17.5505 0.404507 17.7977 0.224731 18.1797 0.224731C19.4606 0.224731 20.7191 0.224731 22 0.224731C22.4719 0.224731 22.6741 0.449451 22.6292 0.921361C22.5393 1.82024 22.4719 2.69664 22.382 3.59552C22.2022 5.30338 21.9775 7.01125 21.7977 8.71911C21.6179 10.427 21.4382 12.1348 21.2584 13.8427C21.0786 15.618 20.8539 17.3933 20.6741 19.191C20.5618 20.3146 20.4494 21.4157 20.3595 22.5393C20.2696 23.5955 20.1797 23.6629 19.146 23.6854C18.8539 23.6854 18.5393 23.6854 18.2472 23.6854C17.0561 23.6629 16.9887 23.573 17.146 22.3596C17.2584 21.573 17.3258 20.809 17.4382 20.0225C17.5056 19.5955 17.3258 19.3708 16.9213 19.3483C16.3595 19.3708 15.7977 19.3708 15.2359 19.3708ZM16.1123 16.4045C16.337 16.4045 16.5618 16.4045 16.7865 16.4045C17.7977 16.3596 17.8876 16.2697 18 15.2135C18.3595 11.9551 18.7191 8.69664 19.0786 5.43821C19.0786 5.3708 19.1236 5.28091 19.1011 5.2135C19.0786 5.05619 19.0112 4.87642 18.9663 4.71911C18.8764 4.83147 18.764 4.92136 18.6966 5.05619C18.5618 5.32585 18.4719 5.61799 18.3595 5.88765C17.2135 8.809 16.0674 11.7303 14.9213 14.6292C14.2247 16.4045 14.2247 16.4045 16.1123 16.4045Z" fill="#96FF94"/>
<path d="M80.1574 0.224709C80.7641 0.224709 81.3484 0.202237 81.9551 0.224709C82.5619 0.247181 82.6068 0.337069 82.5618 0.898866C82.2697 4.20224 81.9776 7.52808 81.6854 10.8314C81.3933 14.2247 81.0787 17.5955 80.7866 20.9888C80.7192 21.6854 80.6293 22.4045 80.5843 23.1011C80.5619 23.4831 80.3821 23.6629 80.0225 23.6629C79.281 23.6629 78.5169 23.6629 77.7753 23.6629C77.4383 23.6629 77.3259 23.4607 77.3484 23.1461C77.4607 22.1798 77.5506 21.2135 77.6405 20.2472C77.7079 19.5056 77.6405 19.3932 76.8765 19.3708C75.9326 19.3483 75.0113 19.3932 74.0675 19.3483C73.4158 19.3258 73.1237 19.618 72.9439 20.1798C72.6293 21.1461 72.2472 22.0674 71.9102 23.0337C71.7529 23.4831 71.5057 23.6854 71.0113 23.6854C68.0899 23.6629 68.5843 23.9101 69.4607 21.573C71.9326 14.9213 74.4495 8.26965 76.9439 1.64044C76.9888 1.52808 77.0338 1.43819 77.0787 1.32583C77.4832 0.247181 77.4832 0.247181 78.6967 0.224709C79.1911 0.224709 79.663 0.224709 80.1574 0.224709ZM76.2023 16.4045C78.2023 16.3595 77.9776 16.5393 78.2023 14.6067C78.5394 11.4831 78.7866 8.35954 79.0562 5.23594C79.0787 5.05617 79.0113 4.89887 78.9888 4.71909C78.8765 4.85392 78.7192 4.96628 78.6517 5.12359C78.5394 5.32583 78.472 5.52808 78.4045 5.7528C77.281 8.76403 76.1574 11.7528 75.0338 14.764C74.3821 16.4045 74.4046 16.4045 76.2023 16.4045Z" fill="#96FF94"/>
<path d="M34.6966 8.11236C34.2247 8.06741 33.7304 8.02247 33.2584 8C33.3259 7.52809 33.4157 7.05618 33.4832 6.58427C33.5955 6.04494 33.7304 5.48314 33.7978 4.94382C33.9551 3.64045 33.1461 2.96629 31.8877 3.25842C30.9888 3.48314 30.4495 4.04494 30.1798 4.8764C29.8202 6.02247 29.5281 7.16854 29.236 8.33708C28.4045 11.6404 27.5955 14.9213 26.7865 18.2247C26.6966 18.5393 26.6292 18.8764 26.6292 19.2135C26.6517 20.2247 27.3034 20.7865 28.3371 20.6292C29.3259 20.4944 29.9775 19.9101 30.2922 18.9888C30.5618 18.2247 30.7641 17.4157 30.9663 16.6292C31.3708 15.0562 31.3483 15.0337 33.0113 15.0562C33.3034 15.0562 33.618 15.0562 33.9101 15.0562C34.3146 15.0562 34.427 15.236 34.3146 15.618C33.9551 16.9213 33.6854 18.2247 33.2809 19.5056C32.9438 20.5843 32.2922 21.5056 31.4607 22.2921C29.6629 23.9775 27.5506 24.2022 25.2809 23.618C24.1798 23.3483 23.5955 22.4944 23.3034 21.3933C23.0337 20.2921 23.191 19.236 23.4607 18.1798C24.4719 14.0449 25.4832 9.91011 26.5393 5.79775C26.7641 4.89887 27.1236 4.02247 27.573 3.21348C29.1236 0.404491 31.7304 -0.404498 34.6292 0.179772C36.045 0.471906 36.809 1.50561 36.9663 2.96629C37.1236 4.56179 36.6517 6.06741 36.3146 7.5955C36.2247 7.97752 36 8.06741 35.6854 8.04494C35.3483 8.04494 35.0113 8.04494 34.6742 8.04494C34.6966 8.08988 34.6966 8.11236 34.6966 8.11236Z" fill="#96FF94"/>
<path d="M100.607 23.6854C99.4382 23.6854 98.2921 23.7079 97.1236 23.6854C96.1798 23.6629 96.1124 23.573 96.3146 22.7191C97.7303 16.427 99.1461 10.1124 100.562 3.82024C100.764 2.89889 100.966 2.00001 101.169 1.07866C101.348 0.292147 101.438 0.224731 102.225 0.224731C102.966 0.224731 103.708 0.292147 104.449 0.314619C104.674 1.07866 104.315 1.75282 104.157 2.44945C102.921 8.00001 101.685 13.5281 100.427 19.0562C100.112 20.4719 100.09 20.4719 101.551 20.4719C102.742 20.4719 103.955 20.4719 105.146 20.4944C105.708 20.4944 105.82 20.6517 105.73 21.1685C105.618 21.7528 105.416 22.3371 105.348 22.9214C105.258 23.5056 104.944 23.6629 104.427 23.6629C103.146 23.6854 101.888 23.6854 100.607 23.6854Z" fill="#96FF94"/>
<path d="M10.6967 0.224731C12.3821 0.224731 12.3596 0.224731 11.9551 1.84271C10.6293 7.01125 9.32591 12.1798 8.02254 17.3483C7.70793 18.5393 7.34838 19.7079 6.71917 20.7865C5.30344 23.1685 3.10119 23.8427 0.516921 23.7978C0.134899 23.7978 -0.0448766 23.5955 0.045011 23.236C0.202314 22.4719 0.38209 21.7079 0.584337 20.9438C0.674224 20.6068 0.943887 20.5393 1.28097 20.5169C1.79782 20.4944 2.33715 20.4944 2.80906 20.3146C3.66299 20 4.17984 19.2809 4.40456 18.427C4.80906 16.9214 5.21355 15.3933 5.59557 13.8877C6.65175 9.77529 7.70793 5.64046 8.74164 1.5281C9.10119 0.112372 9.03378 0.247203 10.3596 0.247203C10.472 0.224731 10.5843 0.224731 10.6967 0.224731Z" fill="#96FF94"/>
</g>
<defs>
<clipPath id="clip0">
<rect width="141.236" height="24" fill="white"/>
</clipPath>
</defs>
</svg>
